images/indikatorenset/5804.svg

<?xml version="1.0" standalone="no"?><!DOCTYPE svg PUBLIC "-//W3C//DTD SVG 1.1//EN" "http://www.w3.org/Graphics/SVG/1.1/DTD/svg11.dtd"><svg xmlns:xlink="http://www.w3.org/1999/xlink" version="1.1" class="highcharts-root" style="font-family:arial;font-size:12px;" xmlns="http://www.w3.org/2000/svg" width="485" height="415"><desc>Created with Highstock 5.0.14</desc><defs><clipPath id="highcharts-9axla9i-6"><rect x="0" y="0" width="410" height="265" fill="none"></rect></clipPath><clipPath id="highcharts-9axla9i-7"><rect x="0" y="0" width="410" height="265" fill="none"></rect></clipPath></defs><rect fill="#fbfbfb" class="highcharts-background" x="0" y="0" width="485" height="415" rx="0" ry="0"></rect><rect fill="none" class="highcharts-plot-background" x="65" y="75" width="410" height="265"></rect><g class="highcharts-pane-group"></g><g class="highcharts-grid highcharts-xaxis-grid "><path fill="none" class="highcharts-grid-line" d="M 132.5 75 L 132.5 340" opacity="1"></path><path fill="none" class="highcharts-grid-line" d="M 201.5 75 L 201.5 340" opacity="1"></path><path fill="none" class="highcharts-grid-line" d="M 269.5 75 L 269.5 340" opacity="1"></path><path fill="none" class="highcharts-grid-line" d="M 337.5 75 L 337.5 340" opacity="1"></path><path fill="none" class="highcharts-grid-line" d="M 406.5 75 L 406.5 340" opacity="1"></path><path fill="none" class="highcharts-grid-line" d="M 474.5 75 L 474.5 340" opacity="1"></path><path fill="none" class="highcharts-grid-line" d="M 64.5 75 L 64.5 340" opacity="1"></path></g><g class="highcharts-grid highcharts-yaxis-grid "><path fill="none" stroke="#B9CFD7" stroke-width="0.5" class="highcharts-grid-line" d="M 65 340.25 L 475 340.25" opacity="1"></path><path fill="none" stroke="#B9CFD7" stroke-width="0.5" class="highcharts-grid-line" d="M 65 287.25 L 475 287.25" opacity="1"></path><path fill="none" stroke="#B9CFD7" stroke-width="0.5" class="highcharts-grid-line" d="M 65 234.25 L 475 234.25" opacity="1"></path><path fill="none" stroke="#B9CFD7" stroke-width="0.5" class="highcharts-grid-line" d="M 65 181.25 L 475 181.25" opacity="1"></path><path fill="none" stroke="#B9CFD7" stroke-width="0.5" class="highcharts-grid-line" d="M 65 128.25 L 475 128.25" opacity="1"></path><path fill="none" stroke="#B9CFD7" stroke-width="0.5" class="highcharts-grid-line" d="M 65 74.75 L 475 74.75" opacity="1"></path></g><rect fill="none" class="highcharts-plot-border" x="65" y="75" width="410" height="265"></rect><g class="highcharts-axis highcharts-xaxis "><path fill="none" class="highcharts-tick" stroke="#FFFFFF" stroke-width="1" d="M 132.5 340 L 132.5 350" opacity="1"></path><path fill="none" class="highcharts-tick" stroke="#FFFFFF" stroke-width="1" d="M 201.5 340 L 201.5 350" opacity="1"></path><path fill="none" class="highcharts-tick" stroke="#FFFFFF" stroke-width="1" d="M 269.5 340 L 269.5 350" opacity="1"></path><path fill="none" class="highcharts-tick" stroke="#FFFFFF" stroke-width="1" d="M 337.5 340 L 337.5 350" opacity="1"></path><path fill="none" class="highcharts-tick" stroke="#FFFFFF" stroke-width="1" d="M 406.5 340 L 406.5 350" opacity="1"></path><path fill="none" class="highcharts-tick" stroke="#FFFFFF" stroke-width="1" d="M 475.5 340 L 475.5 350" opacity="1"></path><path fill="none" class="highcharts-tick" stroke="#FFFFFF" stroke-width="1" d="M 64.5 340 L 64.5 350" opacity="1"></path><path fill="none" class="highcharts-axis-line" stroke="#B9CFD7" stroke-width="0.5" d="M 65 340.25 L 475 340.25"></path></g><g class="highcharts-axis highcharts-yaxis "><path fill="none" class="highcharts-axis-line" d="M 65 75 L 65 340"></path></g><g class="highcharts-series-group"><g class="highcharts-series highcharts-series-0 highcharts-column-series highcharts-color-undefined " transform="translate(65,75) scale(1 1)" clip-path="url(#highcharts-9axla9i-7)"><rect x="27" y="71" width="15" height="66" fill="#2f656b" class="highcharts-point"></rect><rect x="95" y="64" width="15" height="68" fill="#2f656b" class="highcharts-point"></rect><rect x="163" y="63" width="15" height="70" fill="#2f656b" class="highcharts-point"></rect><rect x="232" y="61" width="15" height="72" fill="#2f656b" class="highcharts-point"></rect><rect x="300" y="54" width="15" height="75" fill="#2f656b" class="highcharts-point"></rect><rect x="368" y="53" width="15" height="77" fill="#2f656b" class="highcharts-point"></rect></g><g class="highcharts-markers highcharts-series-0 highcharts-column-series highcharts-color-undefined " transform="translate(65,75) scale(1 1)" clip-path="none"></g><g class="highcharts-series highcharts-series-1 highcharts-column-series highcharts-color-undefined " transform="translate(65,75) scale(1 1)" clip-path="url(#highcharts-9axla9i-7)"><rect x="27" y="137" width="15" height="129" fill="#b00000" class="highcharts-point"></rect><rect x="95" y="132" width="15" height="134" fill="#b00000" class="highcharts-point"></rect><rect x="163" y="133" width="15" height="133" fill="#b00000" class="highcharts-point"></rect><rect x="232" y="133" width="15" height="133" fill="#b00000" class="highcharts-point"></rect><rect x="300" y="129" width="15" height="137" fill="#b00000" class="highcharts-point"></rect><rect x="368" y="130" width="15" height="136" fill="#b00000" class="highcharts-point"></rect></g><g class="highcharts-markers highcharts-series-1 highcharts-column-series highcharts-color-undefined " transform="translate(65,75) scale(1 1)" clip-path="none"></g></g><text x="10" text-anchor="start" class="highcharts-title" style="color:#000000;font-size:14px;font-weight:bold;fill:#000000;" y="21"><tspan>Anzahl Zupendler nach Basel-Stadt nach Herkunft</tspan></text><g class="highcharts-legend" transform="translate(55,30)"><rect fill="none" class="highcharts-legend-box" rx="0" ry="0" x="0" y="0" width="208" height="39" visibility="visible"></rect><g><g><g class="highcharts-legend-item highcharts-column-series highcharts-color-undefined highcharts-series-0" transform="translate(8,3)"><text x="21" style="color:#333333;font-size:12px;font-weight:normal;cursor:pointer;fill:#333333;" text-anchor="start" y="15"><tspan>Aus dem Ausland</tspan></text><rect x="2" y="4" width="12" height="12" fill="#2f656b" class="highcharts-point"></rect></g><g class="highcharts-legend-item highcharts-column-series highcharts-color-undefined highcharts-series-1" transform="translate(8,17)"><text x="21" y="15" style="color:#333333;font-size:12px;font-weight:normal;cursor:pointer;fill:#333333;" text-anchor="start"><tspan>Aus der Schweiz</tspan></text><rect x="2" y="4" width="12" height="12" fill="#b00000" class="highcharts-point"></rect></g></g></g></g><g class="highcharts-axis-labels highcharts-xaxis-labels "><text x="99.16666666666666" style="color:#000000;cursor:default;font-size:11px;fill:#000000;" text-anchor="middle" transform="translate(0,0)" y="359" opacity="1">2010</text><text x="167.5" style="color:#000000;cursor:default;font-size:11px;fill:#000000;" text-anchor="middle" transform="translate(0,0)" y="359" opacity="1">2011</text><text x="235.83333333333334" style="color:#000000;cursor:default;font-size:11px;fill:#000000;" text-anchor="middle" transform="translate(0,0)" y="359" opacity="1">2012</text><text x="304.16666666666663" style="color:#000000;cursor:default;font-size:11px;fill:#000000;" text-anchor="middle" transform="translate(0,0)" y="359" opacity="1">2013</text><text x="372.5" style="color:#000000;cursor:default;font-size:11px;fill:#000000;" text-anchor="middle" transform="translate(0,0)" y="359" opacity="1">2014</text><text x="440.8333333333333" style="color:#000000;cursor:default;font-size:11px;fill:#000000;" text-anchor="middle" transform="translate(0,0)" y="359" opacity="1">2015</text></g><g class="highcharts-axis-labels highcharts-yaxis-labels "><text x="50" style="color:#000000;cursor:default;font-size:11px;fill:#000000;" text-anchor="end" transform="translate(0,0)" y="345" opacity="1"><tspan>0</tspan></text><text x="50" style="color:#000000;cursor:default;font-size:11px;fill:#000000;" text-anchor="end" transform="translate(0,0)" y="292" opacity="1"><tspan>25 000</tspan></text><text x="50" style="color:#000000;cursor:default;font-size:11px;fill:#000000;" text-anchor="end" transform="translate(0,0)" y="239" opacity="1"><tspan>50 000</tspan></text><text x="50" style="color:#000000;cursor:default;font-size:11px;fill:#000000;" text-anchor="end" transform="translate(0,0)" y="186" opacity="1"><tspan>75 000</tspan></text><text x="50" style="color:#000000;cursor:default;font-size:11px;fill:#000000;" text-anchor="end" transform="translate(0,0)" y="133" opacity="1"><tspan>100 000</tspan></text><text x="50" style="color:#000000;cursor:default;font-size:11px;fill:#000000;" text-anchor="end" transform="translate(0,0)" y="80" opacity="1"><tspan>125 000</tspan></text></g><text x="10" class="highcharts-credits" text-anchor="start" style="cursor:default;color:#000000;font-size:10px;fill:#000000;" y="400"><tspan>Quelle: Bundesamt für Statistik BFS, Strukturerhebung (SE)</tspan></text></svg>

<svg class="highcharts-root" xmlns="http://www.w3.org/2000/svg" width="485" height="415" font-family="arial" font-size="12">
    <defs>
        <clipPath id="a">
            <path fill="none" d="M0 0h410v265H0z"/>
        </clipPath>
    </defs>
    <rect fill="#fbfbfb" class="highcharts-background" width="485" height="415" rx="0" ry="0"/>
    <path fill="none" class="highcharts-plot-background" d="M65 75h410v265H65z"/>
    <g class="highcharts-grid highcharts-xaxis-grid">
        <path fill="none" class="highcharts-grid-line" d="M132.5 75v265m69-265v265m68-265v265m68-265v265m69-265v265m68-265v265M64.5 75v265"/>
    </g>
    <g class="highcharts-grid highcharts-yaxis-grid">
        <path fill="none" stroke="#B9CFD7" stroke-width=".5" class="highcharts-grid-line" d="M65 340.25h410m-410-53h410m-410-53h410m-410-53h410m-410-53h410M65 74.75h410"/>
    </g>
    <path fill="none" class="highcharts-plot-border" d="M65 75h410v265H65z"/>
    <g class="highcharts-axis highcharts-xaxis">
        <path fill="none" class="highcharts-tick" stroke="#FFF" d="M132.5 340v10m69-10v10m68-10v10m68-10v10m69-10v10m69-10v10m-411-10v10"/>
        <path fill="none" class="highcharts-axis-line" stroke="#B9CFD7" stroke-width=".5" d="M65 340.25h410"/>
    </g>
    <g class="highcharts-axis highcharts-yaxis">
        <path fill="none" class="highcharts-axis-line" d="M65 75v265"/>
    </g>
    <g class="highcharts-series-group">
        <g class="highcharts-series highcharts-series-0 highcharts-column-series highcharts-color-undefined" transform="translate(65 75)" clip-path="url(#a)">
            <path fill="#2f656b" class="highcharts-point" d="M27 71h15v66H27zm68-7h15v68H95zm68-1h15v70h-15zm69-2h15v72h-15zm68-7h15v75h-15zm68-1h15v77h-15z"/>
        </g>
        <g class="highcharts-series highcharts-series-1 highcharts-column-series highcharts-color-undefined" transform="translate(65 75)" clip-path="url(#a)">
            <path fill="#b00000" class="highcharts-point" d="M27 137h15v129H27zm68-5h15v134H95zm68 1h15v133h-15zm69 0h15v133h-15zm68-4h15v137h-15zm68 1h15v136h-15z"/>
        </g>
    </g>
    <text x="10" class="highcharts-title" y="21" color="#000" font-size="14" font-weight="700">
        <tspan>Anzahl Zupendler nach Basel-Stadt nach Herkunft</tspan>
    </text>
    <g class="highcharts-legend" transform="translate(55 30)">
        <rect fill="none" class="highcharts-legend-box" rx="0" ry="0" width="208" height="39"/>
        <g class="highcharts-legend-item highcharts-column-series highcharts-color-undefined highcharts-series-0">
            <text x="21" y="15" color="#333" font-weight="400" cursor="pointer" fill="#333" transform="translate(8 3)">
                <tspan>Aus dem Ausland</tspan>
            </text>
            <path fill="#2f656b" class="highcharts-point" d="M10 7h12v12H10z"/>
        </g>
        <g class="highcharts-legend-item highcharts-column-series highcharts-color-undefined highcharts-series-1">
            <text x="21" y="15" color="#333" font-weight="400" cursor="pointer" fill="#333" transform="translate(8 17)">
                <tspan>Aus der Schweiz</tspan>
            </text>
            <path fill="#b00000" class="highcharts-point" d="M10 21h12v12H10z"/>
        </g>
    </g>
    <g class="highcharts-axis-labels highcharts-xaxis-labels" text-anchor="middle" color="#000" cursor="default" font-size="11">
        <text x="99.167" y="359">
            2010
        </text>
        <text x="167.5" y="359">
            2011
        </text>
        <text x="235.833" y="359">
            2012
        </text>
        <text x="304.167" y="359">
            2013
        </text>
        <text x="372.5" y="359">
            2014
        </text>
        <text x="440.833" y="359">
            2015
        </text>
    </g>
    <g class="highcharts-axis-labels highcharts-yaxis-labels" text-anchor="end" color="#000" cursor="default" font-size="11">
        <text x="50" y="345">
            <tspan>0</tspan>
        </text>
        <text x="50" y="292">
            <tspan>25 000</tspan>
        </text>
        <text x="50" y="239">
            <tspan>50 000</tspan>
        </text>
        <text x="50" y="186">
            <tspan>75 000</tspan>
        </text>
        <text x="50" y="133">
            <tspan>100 000</tspan>
        </text>
        <text x="50" y="80">
            <tspan>125 000</tspan>
        </text>
    </g>
    <text x="10" class="highcharts-credits" y="400" cursor="default" color="#000" font-size="10">
        <tspan>Quelle: Bundesamt für Statistik BFS, Strukturerhebung (SE)</tspan>
    </text>
</svg>
